X: 074
T: Catches and Glees
B: 204 Favourite Country Dances
N: Published by Straight & Skillern, London ca.1775
F: http://imslp.org/wiki/204_Favourite_Country_Dances_(Various) p.37 #74
Z: 2014 John Chambers <jc:trillian.mit.edu>
M: 6/8
L: 1/8
K: C
% - - - - - - - - - - - - - - - - - - - - - - - - -
|:\
cef gec | fdc BAG |\
cef gec | fdB c3 :|\
|:\
fdc BAG | fdc BdG |\
g2e/c/ g2e/c/ | fdB c3 :|
% - - - - - - - - - - - - - - - - - - - - - - - - -
%%begintext align
%% The 1st Cu. cast off 2 Cu. .| cast up
%% again :| lead down 1 Cu. foot it to
%% your Partner .|. lead up to the top
%% & cast off 1 Cu. :|:
%%endtext

%%sep 1 1 500
%%sep 1 1 500
